assets/icons/qvision/format_color_reset.svg

<svg width="24" height="24" viewBox="0 0 24 24" fill="none" xmlns="http://www.w3.org/2000/svg">
<g clip-path="url(#clip0_147_2595)">
<path d="M18 14C18 10 12 3.20001 12 3.20001C12 3.20001 10.67 4.71001 9.27 6.72001L17.86 15.31C17.95 14.89 18 14.45 18 14ZM17.12 17.12L12.5 12.5L5.27 5.27001L4 6.55001L7.32 9.87001C6.55 11.32 6 12.79 6 14C6 17.31 8.69 20 12 20C13.52 20 14.9 19.43 15.96 18.5L18.59 21.13L19.86 19.86L17.12 17.12Z" fill="#323232"/>
</g>
<defs>
<clipPath id="clip0_147_2595">
<rect width="24" height="24" fill="white"/>
</clipPath>
</defs>
</svg>

<svg xmlns="http://www.w3.org/2000/svg" height="24" viewBox="0 0 24 24" width="24"><path d="M0 0h24v24H0zm0 0h24v24H0zm0 0h24v24H0z" fill="none"/><path d="M18 14c0-4-6-10.8-6-10.8s-1.33 1.51-2.73 3.52l8.59 8.59c.09-.42.14-.86.14-1.31zm-.88 3.12L12.5 12.5 5.27 5.27 4 6.55l3.32 3.32C6.55 11.32 6 12.79 6 14c0 3.31 2.69 6 6 6 1.52 0 2.9-.57 3.96-1.5l2.63 2.63 1.27-1.27-2.74-2.74z"/></svg>
